src/lib/packages/icons/src/assets/line/sort.svg

<svg width="24" height="24" viewBox="0 0 24 24" fill="none" xmlns="http://www.w3.org/2000/svg">
<path d="M7.23891 11.083H15.7599C16.5429 11.083 17.2349 10.6431 17.5639 9.93508C17.8909 9.23108 17.7829 8.42408 17.2819 7.83108L13.266 3.07009C12.387 2.02709 10.6118 2.02709 9.7328 3.07009L5.71693 7.8301C5.21593 8.4241 5.10795 9.23108 5.43495 9.93508C5.76495 10.6441 6.45591 11.083 7.23891 11.083ZM6.86391 8.79812L10.8798 4.03713C11.0338 3.85413 11.2599 3.75002 11.4999 3.75002C11.7399 3.75002 11.966 3.85413 12.12 4.03713L16.1359 8.79812C16.3129 9.00712 16.242 9.221 16.204 9.303C16.165 9.387 16.0429 9.58303 15.7609 9.58303H7.23988C6.95788 9.58303 6.83601 9.387 6.79701 9.303C6.75801 9.221 6.68791 9.00712 6.86391 8.79812ZM15.7609 12.917H7.23988C6.45688 12.917 5.76493 13.357 5.43593 14.065C5.10893 14.769 5.21691 15.576 5.71791 16.169L9.73378 20.93C10.1728 21.451 10.8169 21.75 11.5009 21.75C12.1849 21.75 12.828 21.451 13.268 20.93L17.2838 16.1699C17.7848 15.5759 17.8928 14.769 17.5658 14.065C17.2348 13.356 16.5439 12.917 15.7609 12.917ZM16.1359 15.2019L12.12 19.9629C11.811 20.3279 11.1878 20.3279 10.8798 19.9629L6.86391 15.2019C6.68691 14.9929 6.75779 14.779 6.79579 14.697C6.83479 14.613 6.95691 14.417 7.23891 14.417H15.7599C16.0419 14.417 16.1638 14.613 16.2028 14.697C16.2418 14.779 16.3119 14.9929 16.1359 15.2019Z" fill="currentColor"/>
</svg>

<svg xmlns="http://www.w3.org/2000/svg" width="24" height="24" fill="none"><path fill="currentColor" d="M7.239 11.083h8.52a1.97 1.97 0 0 0 1.805-1.148 1.955 1.955 0 0 0-.282-2.104l-4.016-4.76c-.879-1.044-2.654-1.044-3.533 0L5.717 7.83a1.957 1.957 0 0 0-.282 2.104 1.97 1.97 0 0 0 1.804 1.148Zm-.375-2.285 4.016-4.76a.808.808 0 0 1 .62-.288c.24 0 .466.104.62.287l4.016 4.761a.459.459 0 0 1 .068.505.473.473 0 0 1-.443.28H7.24a.473.473 0 0 1-.443-.28.458.458 0 0 1 .067-.505Zm8.897 4.119H7.24a1.97 1.97 0 0 0-1.804 1.148 1.955 1.955 0 0 0 .282 2.104l4.016 4.761c.439.521 1.083.82 1.767.82.684 0 1.327-.299 1.767-.82l4.016-4.76c.5-.594.609-1.401.282-2.105a1.972 1.972 0 0 0-1.805-1.148Zm.375 2.285-4.016 4.76c-.309.366-.932.366-1.24 0l-4.016-4.76a.459.459 0 0 1-.068-.505.473.473 0 0 1 .443-.28h8.52c.283 0 .405.196.444.28a.458.458 0 0 1-.067.505Z"/></svg>
